X: 3
T:Mazurka des Petits Chocolats
M:3/4
L:1/8
S:French Creek
K:D
FG|A3B ce|d4cd|ef ed Bc|dfA2FG|A3B ce|d4cd|ef ed Bc|1d4:||!
|2d3f af||:B3f af|A3f af|ed BA Bc|df A"," f af|B3f af|A3f af|!
ed BA Bc|1d3 f af:|22d4||
